!!!!SEGMENT: pl-kk--kk-i-88--001-001_golabek-jakub--missa-1-kyrie.krn
!!!cenid: 17xx:2566
!!!COM: Gołąbek, Jakub
!!!COM-rismID: pe30008748
!!!CDT: 1739-1789/03/30
!!!CNT: Polish
!!!OPR: Missa 1
!!!OTL: Kyrie
!!!OMV: 001
!!!PDT:
!!!AGN: Sacred; Mass
!!!YEC: Copyright 2022 Narodowy Instytut Fryderyka Chopina (https://polishscores.org)
!!!YEM: License CC-BY-4.0 (https://creativecommons.org/licenses/by/4.0)
!!!SMS-siglum: PL-Kk
!!!SMS-shelfmark: Kk.I.88
!!!SMS-variant:
!!!SMS-altvar:
!!!SMS-shelfwork: 001-001 M
!!!NIFC-rismSourceID: 1001164072
!!!NIFC-rismChildID: 1001155167
!!!NIFC-islandoraID:
!!!URL-pdf-islandora: https://repozytorium.nifc.pl/islandora/object/pl-kk%3A3086/datastream/PDF/view
!!!URL-scan: https://polish.musicsources.pl/pl/lokalizacje/galeria/rekopisy/6148-missa/4 @EN{Scan on Polish Music Sources Website} @PL{Skany w portalu Dziedzictwo Muzyki Polskiej w otwartym dostępie}
!!!IIIF:
!!!ONB-nifc: UWAGA: C - f. 2r-3v; A - f. 10r-11v; T - f. 18r-19v; B - f. 26r-27v; B rip - f. 33r-34r. Proszę uwzględniać B rip. Części Mszy: 1. Kyrie, 2. Christe, 3. Et in terra, 4. Quoniam, 5. Sanctus, 6. Osanna, 7. Benedictus, 8. Agnus Dei, 9. Dona nobis
!!!OMD: moderato
!!!AIN: 1 alto 2 bass 1 canto 1 tenor
!!!key: C
**kern	**text	**dynam	**kern	**text	**dynam	**kern	**text	**dynam	**kern	**text	**dynam	**kern	**text	**dynam
*part5	*part5	*part5	*part4	*part4	*part4	*part3	*part3	*part3	*part2	*part2	*part2	*part1	*part1	*part1
*staff5	*staff5	*	*staff4	*staff4	*	*staff3	*staff3	*	*staff2	*staff2	*	*staff1	*staff1	*
*I"Baſso E ripieno	*	*	*I"Basso	*	*	*I"Tenore	*	*	*I"Alto	*	*	*I"Canto	*	*
*I'B rip	*	*	*I'B	*	*	*I'T	*	*	*I'A	*	*	*I'S	*	*
*Ibass	*	*	*Ibass	*	*	*Itenor	*	*	*Ialto	*	*	*Icanto	*	*
*ICvox	*	*	*ICvox	*	*	*ICvox	*	*	*ICvox	*	*	*ICvox	*	*
*clefF4	*	*	*clefF4	*	*	*clefC4	*	*	*clefC3	*	*	*clefC1	*	*
*k[]	*	*	*k[]	*	*	*k[]	*	*	*k[]	*	*	*k[]	*	*
*C:	*	*	*C:	*	*	*C:	*	*	*C:	*	*	*C:	*	*
*M3/2	*	*	*M3/2	*	*	*M3/2	*	*	*M3/2	*	*	*M3/2	*	*
=1	=1	=1	=1	=1	=1	=1	=1	=1	=1	=1	=1	=1	=1	=1
*	*	*	*	*	*	*	*	*	*2\right	*	*	*2\right	*	*
!LO:TX:a:t=mod.	!	!	!LO:TX:a:t=moderato	!	!	!	!	!	!	!	!	!	!	!
4C\	Ky-	.	4C\	Ky-	.	2.G/	Ky-	.	2.e\	Ky-	.	2.cc\	Ky-	.
4E\	.	<	4E\	.	<	.	.	.	.	.	.	.	.	.
4G\	.	[>	4G\	.	[>	.	.	.	.	.	.	.	.	.
4E\	-ri-	.	4E\	-ri-	.	4G/	-ri-	.	4e\	-ri-	<	4cc\	-ri-	.
4C\	-e	.	4C\	-e	]	4G/	-e	.	4e\	-e	.	4cc\	-e	<[
4E\	e-	]	4E\	e-	.	4G/	e-	.	4e\	e-	[>	4cc\	e-	>
=2	=2	=2	=2	=2	=2	=2	=2	=2	=2	=2	=2	=2	=2	=2
*2\right	*	*	*2\right	*	*	*	*	*	*	*	*	*	*	*
2G\	-lei-	.	2G\	-lei-	.	2G/	-lei-	.	4e\	-lei-	.	4cc\	-lei-	.
.	.	.	.	.	.	.	.	.	4d\	.	.	4b\	.	.
1G	-son	.	1G	-son	.	1G	-son	.	1d	-son,	]	1b	-son,	]
=3	=3	=3	=3	=3	=3	=3	=3	=3	=3	=3	=3	=3	=3	=3
*	*	*	*	*	*	*2\right	*	*	*	*	*	*	*	*
4G\	Ky-	.	4G\	Ky-	.	2.B\	Ky-	<	2.f\	Ky-	<	2.dd\	Ky-	<
4D\	.	<	4D\	.	.	.	.	.	.	.	.	.	.	.
4BB/	-ri-	[>	4BB/	-ri-	<	.	.	.	.	.	.	.	.	.
4D/	-e	.	4D/	-e	.	4B\	-ri-	.	4f\	-ri-	.	4dd\	-ri-	.
4G\	.	.	4G\	.	[>	4B\	-e	[>	4f\	-e	.	4dd\	-e	[>
4F\	e-	]	4F\	e-	.	4B\	e-	.	4f\	e-	[>	4dd\	e-	.
=4	=4	=4	=4	=4	=4	=4	=4	=4	=4	=4	=4	=4	=4	=4
4E\	-lei-	.	4E\	-lei-	]	2G/	-lei-	]	4f\	-lei-	.	4dd\	-lei-	.
4D\	.	.	4D\	.	.	.	.	.	4e\	.	.	4cc\	.	]
1C	-son	.	1C	-son	.	1G	-son,	.	1e	-son,	]	1cc	-son,	.
=5	=5	=5	=5	=5	=5	=5	=5	=5	=5	=5	=5	=5	=5	=5
4C/	Ky-	.	4C/	Ky-	.	4c\	Ky-	.	4g\	Ky-	.	4ee\	Ky-	.
4C/	-ri-	.	4C/	-ri-	.	4c\	-ri-	.	4e\	-ri-	.	4cc\	-ri-	.
4F\	-e	.	4F\	-e	.	4c\	-e	.	4a\	-e	.	4ff\	-e	.
4E\	e-	.	4E\	e-	.	4c\	e-	.	4g\	e-	.	4ee\	e-	.
4F\	-lei-	.	4F\	-lei-	.	4B\	-lei-	.	4f\	-lei-	.	4dd\	-lei-	.
4F#X\	.	.	4F#X\	.	.	4c\	.	.	4e\	.	.	4cc\	.	.
!	!	!	!LO:LB:g=original	!	!	!	!	!	!	!	!	!	!	!
=6	=6	=6	=6	=6	=6	=6	=6	=6	=6	=6	=6	=6	=6	=6
1G	-son	.	1G	-son	.	1G	-son	.	1d	-son	.	1b	-son	.
2r	.	.	2r	.	.	2r	.	.	2r	.	.	2r	.	.
!LO:LB:g=original	!	!	!	!	!	!LO:LB:g=original	!	!	!LO:LB:g=original	!	!	!LO:LB:g=original	!	!
=7	=7	=7	=7	=7	=7	=7	=7	=7	=7	=7	=7	=7	=7	=7
2.G\	Ky-	<	2.G\	Ky-	<	2.B\	Ky-	<	2.g\	Ky-	.	2.dd\	Ky-	.
4G\	-ri-	.	4G\	-ri-	.	4B\	-ri-	.	4g\	-ti-	.	4dd\	-ri-	.
4G\	-e	[	4G\	-e	[	4B\	-e	.	4g\	-e	.	4dd\	-e	.
4G\	e-	.	4G\	e-	.	4B\	e-	[	4g\	e-	<	4dd\	e-	.
=8	=8	=8	=8	=8	=8	=8	=8	=8	=8	=8	=8	=8	=8	=8
!	!	!	!	!	!	!	!	!	!	!	!	!	!	!LO:DY:a
4G\	-lei-	.	4G\	-lei-	.	4B\	-lei-	.	4g\	-lei-	[	2dd\	-lei-	<
4A\	.	.	4A\	.	.	4c\	.	.	4f#X\	.	.	.	.	.
1A	-son,	.	1A	-son,	.	1c	-son,	.	1f#	-son,	.	1dd	-son	[
=9	=9	=9	=9	=9	=9	=9	=9	=9	=9	=9	=9	=9	=9	=9
4B\	Ky-	.	4B\	Ky-	.	4G/	Ky-	.	2.fn\	Ky-	.	2.dd\	Ky-	.
4G\	.	.	4G\	.	.	4B/	.	.	.	.	.	.	.	.
4B\	-ri-	.	4B\	-ri-	.	4G/	.	.	.	.	.	.	.	.
4d\	-e	.	4d\	-e	.	4B/	-ri-	.	4f\	-ri-	.	4dd\	-ri-	.
4B\	.	.	4B\	.	.	4G/	-e,	.	4f\	-e	.	4dd\	-e	.
4G\	e-	.	4G\	e-	.	4B/	e-	.	4f\	e-	.	4dd\	e-	.
=10	=10	=10	=10	=10	=10	=10	=10	=10	=10	=10	=10	=10	=10	=10
!	!	!	!	!	!	!	!	!	!	!	!	!	!	!LO:HP:a
2c\	-lei-	>	2c\	-lei-	>	2G/	-lei-	.	4f\	-lei-	>	4dd\	-lei-	>
.	.	.	.	.	.	.	.	.	4e\	.	.	4cc\	.	.
2G\	.	.	2G\	.	.	1G	-son,	.	1e	-son,	]	1cc	-son	]
2C/	-son,	]	2C/	-son,	]	.	.	.	.	.	.	.	.	.
=11	=11	=11	=11	=11	=11	=11	=11	=11	=11	=11	=11	=11	=11	=11
2.G\	Ky-	.	2.G\	Ky-	.	2.B\	Ky-	.	2.f\	Ky-	.	2.dd\	Ky-	.
4G\	-ri-	.	4G\	-ri-	.	4B\	-ri-	.	4f\	-ri-	.	4dd\	-ri-	.
4c\	-e	.	4c\	-e	.	4G/	-e	.	4e\	-e	.	4cc\	-e	.
4c\	e-	.	4c\	e-	.	4G/	e-	.	4e\	e-	.	4cc\	e-	.
=12	=12	=12	=12	=12	=12	=12	=12	=12	=12	=12	=12	=12	=12	=12
1.G	-lei-	.	1.G	-lei-	.	2d\	-lei-	.	2d\	-lei-	<	2b\	-lei-	.
!	!	!	!	!	!	!	!	!	!	!	!	!	!	!LO:HP:a
.	.	.	.	.	.	2c\	.	.	2e\	.	.	2cc\	.	<
.	.	.	.	.	.	2B\	.	.	2f\	.	[	2dd\	.	.
!	!	!	!	!	!	!	!	!	!LO:LB:g=original	!	!	!	!	!
=13	=13	=13	=13	=13	=13	=13	=13	=13	=13	=13	=13	=13	=13	=13
2E\	.	.	2E\	.	.	2G/	-son	.	2e\	-son	.	2cc\	-son	.
2D\	.	.	2D\	.	.	2B\	e-	.	2f\	e-	.	2dd\	e-	.
2C\	.	.	2C\	.	.	2c\	.	.	2g\	.	.	2ee\	.	[
!	!	!	!LO:LB:g=original	!	!	!LO:LB:g=original	!	!	!	!	!	!LO:LB:g=original	!	!
=14	=14	=14	=14	=14	=14	=14	=14	=14	=14	=14	=14	=14	=14	=14
2F\	.	.	2F\	.	.	2d\	-lei-	.	4a\	-lei-	.	4ff\	-lei-	.
.	.	.	.	.	.	.	.	.	4f\	.	.	4dd\	.	.
2G\	.	.	2G\	.	.	1G	.	.	2e\	.	.	2cc\	.	.
2GG/	.	.	2GG/	.	.	.	.	.	2d\	.	.	2b\	.	.
=15	=15	=15	=15	=15	=15	=15	=15	=15	=15	=15	=15	=15	=15	=15
1C	-son	.	1C	-son	.	1G	-son	.	1e	-son	.	1cc	-son	.
2r	.	.	2r	.	.	2r	.	.	2r	.	.	2r	.	.
!LO:LB:g=original	!	!	!	!	!	!	!	!	!	!	!	!	!	!
=16	=16	=16	=16	=16	=16	=16	=16	=16	=16	=16	=16	=16	=16	=16
!	!	!LO:DY:a:t=p&colon;:rj	!	!	!LO:DY:a:t=p&colon;:rj	!	!	!LO:DY:a:t=p.:rj	!	!	!LO:DY:a:t=p.:rj	!	!	!LO:DY:a:t=p&colon;:rj
2.G\	Ky-	p	2.G\	Ky-	p	2.B\	Ky-	p	2.g\	Ky-	p	2.dd\	Ky-	p
4G\	-ri-	.	4G\	-ri-	.	4B\	-ri-	.	4g\	-ri-	.	4dd\	-ri-	.
4G\	-e	.	4G\	-e	.	4B\	-e	.	4g\	-e	.	4dd\	-e	.
4G\	e-	.	4G\	e-	.	4B\	e-	.	4g\	e-	.	4dd\	e-	.
=17	=17	=17	=17	=17	=17	=17	=17	=17	=17	=17	=17	=17	=17	=17
4G\	-lei-	.	4G\	-lei-	.	4B\	-lei-	.	4g\	-lei-	.	2dd\	-lei-	.
4A\	.	.	4A\	.	.	4c\	.	.	4f#X\	.	.	.	.	.
1A	-son,	.	1A	-son,	.	1c	-son,	.	1f#	-son	.	1dd	-son,	.
=18	=18	=18	=18	=18	=18	=18	=18	=18	=18	=18	=18	=18	=18	=18
4B\	Ky-	.	4B\	Ky-	.	4G/	Ky-	.	2.fn\	Ky-	.	2.dd\	Ky-	.
4G\	.	.	4G\	.	.	4B/	.	.	.	.	.	.	.	.
4B\	-ri-	.	4B\	-ri-	.	4G/	-ri-	.	.	.	.	.	.	.
4d\	.	.	4d\	.	.	4B/	.	.	4f\	-ri-	.	4dd\	-ri-	.
4B\	-e	.	4B\	-e	.	4G/	-e	.	4f\	-e	.	4dd\	-e	.
4G\	e-	.	4G\	e-	.	4B/	e-	.	4f\	e-	.	4dd\	e-	.
=19	=19	=19	=19	=19	=19	=19	=19	=19	=19	=19	=19	=19	=19	=19
2c\	-lei-	.	2c\	-lei-	.	2G/	-lei-	.	4f\	-lei-	.	4dd\	-lei-	.
.	.	.	.	.	.	.	.	.	4e\	.	.	4cc\	.	.
2G\	.	.	2G\	.	.	1G	-son,	.	1e	-son	.	1cc	-son,	.
2C/	-son	.	2C/	-son	.	.	.	.	.	.	.	.	.	.
!	!	!	!	!	!	!	!	!	!LO:LB:g=original	!	!	!	!	!
=20	=20	=20	=20	=20	=20	=20	=20	=20	=20	=20	=20	=20	=20	=20
!	!	!LO:DY:a:t=fo:rj	!	!	!LO:DY:a:t=f&colon;:rj	!	!	!LO:DY:a:t=for:rj	!	!	!LO:DY:a:t=fo&colon;:rj	!	!	!LO:DY:a:t=fu
2.G\	Ky-	f	2.G\	Ky-	f	2.B\	Ky-	f	2.f\	Ky-	f	2.dd\	Ky-	f
4G\	-ri-	.	4G\	-ri-	.	4B\	-ri-	.	4f\	-ri-	.	4dd\	-ri-	.
4c\	-e	.	4c\	-e	.	4G/	-e,	.	4e\	-e	.	4cc\	-e	.
4c\	e-	.	4c\	e-	.	4G/	e-	.	4e\	e-	.	4cc\	e-	.
!	!	!	!LO:LB:g=original	!	!	!LO:LB:g=original	!	!	!	!	!	!LO:LB:g=original	!	!
=21	=21	=21	=21	=21	=21	=21	=21	=21	=21	=21	=21	=21	=21	=21
1.G	-lei-	.	1.G	-lei-	.	2d\	-lei-	.	2d\	-lei-	.	2b\	-lei-	.
.	.	.	.	.	.	2c\	.	.	2e\	.	.	2cc\	.	.
.	.	.	.	.	.	2B\	.	.	2f\	.	.	2dd\	.	.
=22	=22	=22	=22	=22	=22	=22	=22	=22	=22	=22	=22	=22	=22	=22
2E\	.	.	2E\	.	.	2G/	-son	.	2e\	-son	.	2cc\	-son	.
2D\	.	.	2D\	.	.	2B\	e-	.	2f\	e-	.	2dd\	e-	.
2C/	-son	.	2C/	-son	.	2c\	.	.	2g\	.	.	2ee\	.	.
=23	=23	=23	=23	=23	=23	=23	=23	=23	=23	=23	=23	=23	=23	=23
2F\	e-	.	2F\	e-	.	2d\	-lei-	.	4a\	-lei-	.	4ff\	-lei-	.
.	.	.	.	.	.	.	.	.	4f\	.	.	4dd\	.	.
2G\	-lei-	.	2G\	-lei-	.	1G	.	.	2e\	.	.	2cc\	.	.
2GG/	.	.	2GG/	.	.	.	.	.	2d\	.	.	2b\	.	.
=24	=24	=24	=24	=24	=24	=24	=24	=24	=24	=24	=24	=24	=24	=24
1C	-son	.	1C	-son	.	1G	-son	.	1e	-son	.	1cc	-son	.
!	!	!	!	!	!	!	!	!	!	!	!	!	!	!LO:HP:a
2C/	e-	.	2C/	e-	<	2G/	e-	.	2e\	e-	.	2cc\	e-	<
=25	=25	=25	=25	=25	=25	=25	=25	=25	=25	=25	=25	=25	=25	=25
!	!	!	!	!	!	!	!	!	!	!	!	!	!	!LO:HP:a
1.C	-lei-	<[	1.C	-lei-	[>	1.A	-lei-	<[	1.f	-lei-	<[	1.cc	-lei-	[>
=26	=26	=26	=26	=26	=26	=26	=26	=26	=26	=26	=26	=26	=26	=26
1.C	-son	>]	1.C	-son	]	1G	-son	>]	1e	-son	>]	1.cc	-son	]]
.	.	.	.	.	.	2r	.	.	2r	.	.	.	.	.
==	==	==	==;;	==	==	==;;	==	==	==;;	==	==	==;;	==	==
*-	*-	*-	*-	*-	*-	*-	*-	*-	*-	*-	*-	*-	*-	*-
!!!system-decoration: [(s1,s2,s3,s4)]s5
!!!ENC: Berenika Jozajtis
!!!END: 2024-02-22
!!!EED: Marta Chmielewska
!!!EEV: 2024-04-29
